X:94
T:Johnson's Reel 
T:Jackson's
B:CRE1.201 (Ril Mhic Eoin)
F:file ID: cre.1/094johns_r
S:Sonny Brogan
N:This tune appears in other sources, but CRE is the only one 
that refers to this tune as anything other than "Jackson's" 
(of which there are many, so "Johnson's" actually works better 
from an archiving standpoint!) The Gaelic actually means "The 
Reel of John's Son" but (as with many of Breathnach's titles) 
one can never be sure if this isn't a "back translation from 
the English.
M:C
R:reel
L:1/8
Q:180
K:Em
efed B2dB|A2GB AFGF|EFGA BAGB|ABdf eBB2|
"5"efed B2dB|A2GB AFGF|EFGA Beef|1 (3gfe fd Bee2:|\
[2 (3gfe fd Bee||
d|"9"efed Bdeg|fdd^c dfaf|gfed Beed|(3B^cd AF GEE2|
"13"efed Bdeg|fdd^c dfaf|bgaf gfed|(3B^cd AF GEE>B|
"17"efed Bdeg|fdd^c dfaf|gfed Beed|(3B^cd AF GEEf|
"21"gbeb gbeg|fadg fad2|bgaf gfef|gfgf efgf|e8||

%%%

